icons/scikitlearn-dark.svg

<svg xmlns="http://www.w3.org/2000/svg" width="256" height="256" fill="none"><rect width="256" height="256" fill="#282828" rx="60"/><g clip-path="url(#clip0_983_172)"><path fill="#F89939" d="M181.405 160.654c24.426-24.424 28.486-59.964 9.067-79.38-19.416-19.416-54.954-15.357-79.378 9.066-24.425 24.424-17.36 71.086-9.066 79.381 6.702 6.702 54.954 15.357 79.377-9.067"/><path fill="#3499CD" d="M81.182 125.361c-14.17-14.169-34.792-16.528-46.06-5.261-11.266 11.267-8.911 31.891 5.262 46.059 14.173 14.174 41.248 10.075 46.057 5.261 3.892-3.885 8.915-31.887-5.26-46.059"/><path fill="#010101" d="M130.073 154.668q-3.755 3.457-6.586 5.097-2.832 1.644-5.401 1.644-2.955 0-4.765-2.292-1.81-2.293-1.808-6.161 0-5.801 2.514-13.92 2.512-8.124 6.103-14.973l7.017-2.597q.33-.111.498-.112c.532 0 .972.393 1.31 1.174q.512 1.177.512 3.164.001 5.635-2.597 10.911-2.598 5.277-8.121 11.27-.222 2.873-.221 3.95c0 1.604.294 2.872.883 3.812q.885 1.41 2.348 1.408 1.493.002 3.178-1.074 1.682-1.078 5.136-4.477zm-10.578-10.799a33.7 33.7 0 0 0 5.691-8.741q2.18-4.841 2.18-8.329c0-.678-.1-1.229-.302-1.643q-.304-.623-.774-.623-1.02 0-2.969 5.089t-3.826 14.247"/><path fill="#010101" d="M150.737 154.667q-3.507 3.458-6.298 5.098-2.788 1.643-6.159 1.643-3.757 0-6.066-2.401-2.304-2.406-2.304-6.327-.001-5.855 4.063-10.593 4.058-4.739 9.003-4.738 2.568 0 4.116 1.327t1.547 3.48q0 5.718-12.154 9.281 1.104 5.385 5.773 5.387 1.823 0 3.479-.979 1.659-.983 5.001-4.352zm-14.474-5.109q7.07-1.989 7.071-7.347-.001-2.651-1.933-2.651-1.823-.001-3.479 2.776-1.66 2.774-1.659 7.222"/><path fill="#010101" d="M180.238 154.668q-4.421 4.198-6.325 5.472-1.906 1.27-3.647 1.269-4.364 0-4.116-7.706-2.762 3.948-5.097 5.83-2.332 1.877-4.821 1.876-2.427 0-4.129-2.277-1.699-2.279-1.697-5.595 0-4.142 2.276-7.901 2.281-3.756 5.843-6.075 3.564-2.321 6.297-2.322 3.454.001 4.836 3.176l5.645-3.119h1.55l-2.439 8.092q-1.879 6.106-1.88 8.371-.001 2.375 1.685 2.375 1.073 0 2.373-1.147 1.298-1.147 3.644-3.495v3.176zm-20.22 1.521q2.76 0 5.209-4.709 2.445-4.712 2.444-8.69-.001-1.546-.69-2.416-.693-.872-1.851-.87-2.765 0-5.234 4.696-2.473 4.698-2.474 8.644 0 1.494.733 2.419.729.927 1.863.926"/><path fill="#010101" d="M200.873 154.668q-6.935 6.795-10.691 6.796-1.686 0-2.845-1.42-1.158-1.424-1.16-3.524.001-3.894 4.172-10.441-2.045 1.049-4.475 1.463-1.797 3.316-5.635 7.125h-.634v-2.483a36 36 0 0 0 3.894-4.808q-2.378-1.051-2.376-3.119-.002-2.128 1.451-4.548 1.449-2.414 3.992-2.414 2.153-.001 2.153 2.208 0 1.74-1.244 4.973c3.056-.333 5.727-2.669 8.012-7.017l2.512-.111-2.569 7.072q-1.601 4.476-2.07 6.091t-.47 2.859q0 1.163.538 1.85.539.694 1.451.692.994-.002 1.906-.675.91-.681 4.089-3.745v3.176z"/><path fill="#010101" d="M228 154.668q-6.381 6.743-10.939 6.741-1.85 0-2.983-1.298-1.135-1.298-1.134-3.479 0-2.957 2.432-9.032 1.298-3.262 1.299-4.144-.001-.885-.69-.885-.387.001-1.023.386-.582.389-1.355 1.079-.69.635-1.547 1.544a45 45 0 0 0-1.6 1.769l-1.549 1.797q-1.02 1.242-1.269 2.623a42 42 0 0 0-.554 4.312q-.084 1.46-.083 3.95l-6.105 1.434q-.303-3.73-.304-5.551 0-4.448 1.037-8.425c.69-2.654 1.798-5.635 3.328-8.951l6.739-1.298q-2.126 5.718-2.789 9.004 4.529-5.054 7.189-7.002t4.729-1.946q1.407 0 2.344 1.061.94 1.065.938 2.661 0 2.65-2.373 8.729-1.631 4.168-1.631 5.416 0 1.663 1.356 1.663 2.022 0 6.537-5.332z"/><path fill="#fff" d="M140.525 123.723q.065.732.365 1.122.553.707 1.918.707.813 0 1.431-.35.618-.357.617-1.097 0-.56-.495-.853-.318-.178-1.252-.415l-1.162-.292q-1.113-.276-1.642-.618-.942-.593-.943-1.642 0-1.235.886-1.999.894-.764 2.398-.764 1.966 0 2.836 1.154.544.732.529 1.577h-1.382a1.7 1.7 0 0 0-.35-.902q-.504-.577-1.747-.577-.83 0-1.26.317a1 1 0 0 0-.422.837q0 .569.56.91.326.204.959.358l.968.235q1.576.383 2.113.74.853.561.853 1.764 0 1.162-.886 2.007-.878.846-2.682.845-1.942 0-2.755-.877-.805-.887-.861-2.187zm10.809-6.225q1.471 0 2.389.715.927.716 1.114 2.463h-1.423q-.13-.805-.593-1.333-.463-.537-1.487-.537-1.398 0-1.999 1.366-.391.885-.391 2.186 0 1.308.553 2.202t1.739.894q.91 0 1.439-.552.536-.56.739-1.528h1.423q-.244 1.73-1.219 2.536-.976.796-2.495.796-1.707 0-2.723-1.243-1.016-1.252-1.016-3.121 0-2.293 1.113-3.568 1.114-1.276 2.837-1.276m4.966.292h1.487v8.664H156.3zm0-3.275h1.487v1.658H156.3zm3.673 0h1.406v6.933l3.755-3.698h1.869l-3.332 3.259 3.519 5.445h-1.869l-2.715-4.389-1.227 1.122v3.267h-1.406zm8.355 3.275h1.487v8.664h-1.487zm0-3.275h1.487v1.658h-1.487zm3.999.805h1.479v2.43h1.39v1.194h-1.39v5.681q0 .456.309.61.17.09.569.089h.227q.121-.008.285-.024v1.154a3 3 0 0 1-.529.106 5 5 0 0 1-.585.032q-1.023 0-1.39-.52-.365-.528-.365-1.365v-5.763h-1.179v-1.194h1.179z"/></g><defs><clipPath id="clip0_983_172"><path fill="#fff" d="M28 69h200v107.86H28z"/></clipPath></defs></svg>

<svg width="256" height="256" viewBox="0 0 256 256" fill="none" xmlns="http://www.w3.org/2000/svg">
<rect width="256" height="256" rx="60" fill="#282828"/>
<g clip-path="url(#clip0_983_172)">
<path d="M181.405 160.654C205.831 136.23 209.891 100.69 190.472 81.2731C171.056 61.8579 135.518 65.9168 111.094 90.3399C86.6691 114.764 93.7346 161.426 102.028 169.721C108.73 176.423 156.982 185.078 181.405 160.654Z" fill="#F89939"/>
<path d="M81.1816 125.361C67.0116 111.192 46.3899 108.833 35.1213 120.1C23.8556 131.367 26.211 151.991 40.3838 166.159C54.5567 180.333 81.6323 176.234 86.4412 171.42C90.3327 167.535 95.3558 139.533 81.1816 125.361Z" fill="#3499CD"/>
<path d="M130.073 154.668C127.57 156.972 125.374 158.672 123.487 159.765C121.599 160.861 119.799 161.409 118.086 161.409C116.116 161.409 114.527 160.645 113.321 159.117C112.114 157.587 111.513 155.536 111.513 152.956C111.513 149.089 112.351 144.448 114.027 139.036C115.7 133.62 117.737 128.629 120.13 124.063L127.147 121.466C127.367 121.392 127.534 121.354 127.645 121.354C128.177 121.354 128.617 121.747 128.955 122.528C129.296 123.313 129.467 124.367 129.467 125.692C129.467 129.449 128.603 133.086 126.87 136.603C125.137 140.122 122.432 143.877 118.749 147.873C118.601 149.789 118.528 151.104 118.528 151.823C118.528 153.427 118.822 154.695 119.411 155.635C120.001 156.576 120.783 157.043 121.759 157.043C122.755 157.043 123.813 156.687 124.937 155.969C126.058 155.249 127.771 153.759 130.073 151.492V154.668H130.073ZM119.495 143.869C121.833 141.269 123.732 138.354 125.186 135.128C126.64 131.9 127.366 129.125 127.366 126.799C127.366 126.121 127.266 125.57 127.064 125.156C126.862 124.741 126.602 124.533 126.29 124.533C125.611 124.533 124.62 126.229 123.321 129.622C122.022 133.015 120.747 137.764 119.495 143.869Z" fill="#010101"/>
<path d="M150.737 154.667C148.399 156.972 146.3 158.672 144.439 159.765C142.579 160.861 140.528 161.408 138.28 161.408C135.775 161.408 133.754 160.607 132.214 159.007C130.678 157.402 129.91 155.295 129.91 152.68C129.91 148.777 131.263 145.245 133.973 142.087C136.677 138.927 139.68 137.349 142.976 137.349C144.689 137.349 146.059 137.792 147.092 138.676C148.123 139.561 148.639 140.719 148.639 142.156C148.639 145.969 144.588 149.061 136.485 151.437C137.221 155.026 139.145 156.824 142.258 156.824C143.474 156.824 144.633 156.497 145.737 155.845C146.844 155.19 148.509 153.738 150.738 151.493L150.737 154.667ZM136.263 149.558C140.976 148.231 143.334 145.784 143.334 142.211C143.334 140.443 142.688 139.56 141.401 139.56C140.185 139.56 139.026 140.484 137.922 142.336C136.814 144.186 136.263 146.592 136.263 149.558Z" fill="#010101"/>
<path d="M180.238 154.668C177.291 157.466 175.182 159.292 173.913 160.14C172.642 160.987 171.427 161.409 170.266 161.409C167.356 161.409 165.985 158.841 166.15 153.703C164.309 156.335 162.609 158.278 161.053 159.533C159.498 160.785 157.892 161.409 156.232 161.409C154.614 161.409 153.238 160.651 152.103 159.132C150.969 157.612 150.406 155.749 150.406 153.537C150.406 150.776 151.164 148.142 152.682 145.636C154.203 143.131 156.15 141.108 158.525 139.561C160.9 138.014 163.001 137.239 164.822 137.239C167.125 137.239 168.737 138.299 169.658 140.415L175.303 137.296H176.853L174.414 145.388C173.162 149.459 172.534 152.249 172.534 153.759C172.534 155.342 173.094 156.134 174.219 156.134C174.934 156.134 175.726 155.752 176.592 154.987C177.458 154.222 178.671 153.057 180.236 151.492V154.668H180.238ZM160.018 156.189C161.859 156.189 163.594 154.619 165.227 151.48C166.857 148.339 167.671 145.441 167.671 142.79C167.671 141.76 167.439 140.953 166.981 140.374C166.519 139.792 165.902 139.504 165.13 139.504C163.288 139.504 161.541 141.069 159.896 144.2C158.248 147.332 157.422 150.213 157.422 152.844C157.422 153.84 157.667 154.646 158.155 155.263C158.642 155.881 159.261 156.189 160.018 156.189Z" fill="#010101"/>
<path d="M200.873 154.668C196.25 159.197 192.686 161.464 190.182 161.464C189.058 161.464 188.109 160.99 187.337 160.044C186.566 159.095 186.177 157.92 186.177 156.52C186.177 153.923 187.569 150.444 190.349 146.079C188.985 146.779 187.495 147.265 185.874 147.542C184.677 149.752 182.797 152.128 180.239 154.667H179.605V152.184C181.04 150.692 182.339 149.089 183.499 147.376C181.913 146.676 181.123 145.635 181.123 144.257C181.123 142.837 181.604 141.323 182.574 139.709C183.54 138.1 184.87 137.295 186.566 137.295C188.002 137.295 188.719 138.029 188.719 139.503C188.719 140.664 188.305 142.32 187.475 144.476C190.531 144.143 193.202 141.807 195.487 137.459L197.999 137.348L195.43 144.42C194.363 147.403 193.672 149.435 193.36 150.511C193.048 151.587 192.89 152.542 192.89 153.37C192.89 154.144 193.07 154.763 193.428 155.22C193.787 155.684 194.271 155.912 194.879 155.912C195.541 155.912 196.178 155.685 196.785 155.237C197.392 154.782 198.755 153.535 200.874 151.492V154.668H200.873Z" fill="#010101"/>
<path d="M228 154.668C223.747 159.164 220.098 161.409 217.061 161.409C215.827 161.409 214.833 160.977 214.078 160.111C213.321 159.246 212.944 158.086 212.944 156.632C212.944 154.661 213.755 151.65 215.376 147.6C216.241 145.426 216.675 144.043 216.675 143.456C216.675 142.866 216.443 142.571 215.985 142.571C215.728 142.571 215.385 142.701 214.962 142.957C214.574 143.215 214.123 143.577 213.607 144.036C213.148 144.459 212.631 144.974 212.06 145.58C211.562 146.1 211.028 146.689 210.46 147.349L208.911 149.146C208.231 149.974 207.807 150.848 207.642 151.769C207.364 153.334 207.181 154.772 207.088 156.081C207.031 157.055 207.005 158.37 207.005 160.031L200.9 161.465C200.699 158.979 200.596 157.128 200.596 155.914C200.596 152.949 200.941 150.14 201.633 147.489C202.323 144.835 203.431 141.854 204.961 138.538L211.7 137.24C210.283 141.053 209.353 144.053 208.911 146.244C211.931 142.874 214.326 140.542 216.1 139.242C217.872 137.943 219.45 137.296 220.829 137.296C221.766 137.296 222.549 137.65 223.173 138.357C223.8 139.066 224.111 139.955 224.111 141.018C224.111 142.784 223.32 145.694 221.738 149.747C220.65 152.527 220.107 154.33 220.107 155.163C220.107 156.272 220.559 156.826 221.463 156.826C222.81 156.826 224.991 155.048 228 151.494V154.668Z" fill="#010101"/>
<path d="M140.525 123.723C140.568 124.211 140.69 124.585 140.89 124.845C141.259 125.316 141.898 125.552 142.808 125.552C143.35 125.552 143.827 125.435 144.239 125.202C144.651 124.964 144.856 124.598 144.856 124.105C144.856 123.731 144.691 123.447 144.361 123.252C144.149 123.133 143.732 122.995 143.109 122.837L141.947 122.545C141.205 122.361 140.657 122.155 140.305 121.927C139.677 121.532 139.362 120.984 139.362 120.285C139.362 119.462 139.658 118.795 140.248 118.286C140.844 117.777 141.643 117.522 142.646 117.522C143.957 117.522 144.902 117.907 145.482 118.676C145.845 119.164 146.021 119.689 146.011 120.253H144.629C144.602 119.922 144.485 119.622 144.279 119.351C143.943 118.966 143.361 118.774 142.532 118.774C141.979 118.774 141.559 118.879 141.272 119.091C140.991 119.302 140.85 119.581 140.85 119.928C140.85 120.307 141.037 120.611 141.41 120.838C141.627 120.974 141.947 121.093 142.369 121.196L143.337 121.431C144.388 121.686 145.092 121.933 145.45 122.171C146.019 122.545 146.303 123.133 146.303 123.935C146.303 124.709 146.008 125.379 145.417 125.942C144.832 126.506 143.938 126.787 142.735 126.787C141.44 126.787 140.522 126.495 139.98 125.91C139.444 125.319 139.156 124.59 139.119 123.723H140.525ZM151.334 117.498C152.315 117.498 153.111 117.736 153.723 118.213C154.341 118.69 154.712 119.511 154.837 120.676H153.414C153.328 120.139 153.13 119.695 152.821 119.343C152.512 118.985 152.017 118.806 151.334 118.806C150.402 118.806 149.736 119.261 149.335 120.172C149.074 120.762 148.944 121.491 148.944 122.358C148.944 123.23 149.129 123.964 149.497 124.56C149.866 125.156 150.445 125.454 151.236 125.454C151.843 125.454 152.323 125.27 152.675 124.902C153.032 124.528 153.279 124.019 153.414 123.374H154.837C154.674 124.528 154.268 125.373 153.618 125.91C152.967 126.441 152.136 126.706 151.123 126.706C149.985 126.706 149.077 126.292 148.4 125.463C147.723 124.628 147.384 123.588 147.384 122.342C147.384 120.814 147.755 119.624 148.497 118.774C149.24 117.923 150.185 117.498 151.334 117.498ZM156.3 117.79H157.787V126.454H156.3V117.79ZM156.3 114.515H157.787V116.173H156.3V114.515ZM159.973 114.515H161.379V121.448L165.134 117.75H167.003L163.671 121.009L167.19 126.454H165.321L162.606 122.065L161.379 123.187V126.454H159.973V114.515ZM168.328 117.79H169.815V126.454H168.328V117.79ZM168.328 114.515H169.815V116.173H168.328V114.515ZM172.327 115.32H173.806V117.75H175.196V118.944H173.806V124.625C173.806 124.929 173.909 125.132 174.115 125.235C174.228 125.295 174.418 125.324 174.684 125.324C174.754 125.324 174.83 125.324 174.911 125.324C174.992 125.319 175.087 125.311 175.196 125.3V126.454C175.028 126.503 174.852 126.538 174.667 126.56C174.489 126.581 174.294 126.592 174.082 126.592C173.4 126.592 172.936 126.419 172.692 126.072C172.449 125.72 172.327 125.265 172.327 124.707V118.944H171.148V117.75H172.327V115.32Z" fill="white"/>
</g>
<defs>
<clipPath id="clip0_983_172">
<rect width="200" height="107.86" fill="white" transform="translate(28 69)"/>
</clipPath>
</defs>
</svg>
